X: 4
T:Missa Ave maris stella / Sanctus
N: Derived from Jos0301d-Missa_Ave_maris_stella-Sanctus.krn
C: Josquin des Prez
%%abc-version 2.0
%%abcx-abcm2ps-target-version 5.9.1 (29 Sep 2008)
%%abc-creator hum2abc beta
%%abcx-conversion-date 2019/02/12 16:15:38
%%abc-edited-by Jesse Rodin
%%abc-edited-by Jesse Rodin; Victoria Chang 2011/04/01/
%%abcx-initial-encoding-date 2011/04/01/
%%humdrum-veritas 2461482048
%%humdrum-veritas-data 2915276436
%%linebreak <none>
%%barnumbers 0
L: 1/4
M: 3/1
Q: 1/2=120
%%staves [1 2 3 4]
V: 1 clef=treble
V: 2 clef=treble-8
V: 3 clef=treble-8
V: 4 clef=bass
K: F
[V:1] G12 | 
[V:2] z2g4f2e4 | 
[V:3] z12 | 
[V:4] z12 | 
[V:1] d12 | 
[V:2] d4z4z4 | 
[V:3] z12 | 
[V:4] z2D4C2B,4 | 
[V:1] e8c4 | 
[V:2] z2c4B2A4 | 
[V:3] z12 | 
[V:4] A,4z4z4 | 
[V:1] d8e4 | 
[V:2] G4g8 | 
[V:3] G12 | 
[V:4] z2G,4F,2E,4 | 
[V:1] f6e2d4 | 
[V:2] f3e/d/fga2f2g2 | 
[V:3] d12 | 
[V:4] D,2D4C2B,4 | 
[V:1] c3BAGG4^F2 | 
[V:2] z2c4B2A4 | 
[V:3] e8c4 | 
[V:4] A,4z4z4 | 
[V:1] G4z2d2efge | 
[V:2] G2B3GA2B2G2 | 
[V:3] d4e2f2g4 | 
[V:4] z2G,4F,2E,4 | 
[V:1] f2d3cBAGBA2 | 
[V:2] A2B2G2B3GA2 | 
[V:3] f4g2d2e2f2 | 
[V:4] D,4z2G,4F,2 | 
[V:1] G2d2e2f2g2e2 | 
[V:2] B2G2B2A2B2G2 | 
[V:3] g3fedd4^c2 | 
[V:4] E,D,G,4F,2E,4 | 
[V:1] f12 | 
[V:2] A2B3cdef2B2 | 
[V:3] d8d4- | 
[V:4] D,4B,6B,2 | 
[V:1] z2B4B2B4 | 
[V:2] f2g2G3ABGg2 | 
[V:3] d2d2d4G4 | 
[V:4] B,2G,3A,B,G,D2G,2 | 
[V:1] c3AA8 | 
[V:2] e2f2F3GAFc2- | 
[V:3] A12 | 
[V:4] C2F,3G,A,F,C2F,2 | 
[V:1] z2G2G3ABGd2- | 
[V:2] cdece4d4 | 
[V:3] c8B4 | 
[V:4] z2C,3D,E,C,G,2D,2- | 
[V:1] dcA2z2A3Bc2 | 
[V:2] f4e2f3ec2 | 
[V:3] A4c8 | 
[V:4] D,E,F,D,A,2F,3G,A,F, | 
[V:1] F2B3AF2G2F2 | 
[V:2] d8G2d2 | 
[V:3] B12- | 
[V:4] B,2B,,3C,D,B,,_E,2D,2 | 
[V:1] G2F2z2F2GFGE | 
[V:2] G2d2z2d4c2 | 
[V:3] B8G4 | 
[V:4] z2B,,3C,D,B,,_E,4 | 
[V:1] F4z2F3GAF | 
[V:2] d2F3GAFB2A2 | 
[V:3] A8z2F2- | 
[V:4] D,12- | 
[V:1] B2A4F3GAF | 
[V:2] z2F3GAFB2A2 | 
[V:3] FGAFB2A2z2F2- | 
[V:4] D,12- | 
[V:1] B2A3G/A/G3^FFE | 
[V:2] d12 | 
[V:3] FGA2F2B2A4 | 
[V:4] D,12 | 
[V:1] G12 ||  
[V:2] d12 ||  
[V:3] G12 ||  
[V:4] G,12 ||  
[V:1]  [K:F] [K:clef=treble][M:2/1]z8 | 
[V:2]  [K:F] [K:clef=treble-8][M:2/1]z8 | 
[V:3]  [K:F] [K:clef=treble-8][M:2/1]z8 | 
[V:4]  [K:F] [K:clef=bass][M:2/1]D8- | 
[V:1] z8 | 
[V:2] z8 | 
[V:3] z8 | 
[V:4] D4D4 | 
[V:1] z8 | 
[V:2] g8- | 
[V:3] z8 | 
[V:4] C4B,2C2- | 
[V:1] z8 | 
[V:2] g4g4 | 
[V:3] z8 | 
[V:4] CB,G,2B,2C2 | 
[V:1] z8 | 
[V:2] f4e2f2- | 
[V:3] z8 | 
[V:4] A,3B,C2F,2- | 
[V:1] z8 | 
[V:2] fec2e2f2 | 
[V:3] z8 | 
[V:4] F,G,A,B,C2A,2 | 
[V:1] d8- | 
[V:2] d2g2f2g2- | 
[V:3] z8 | 
[V:4] B,8- | 
[V:1] d4d4 | 
[V:2] gfd2f2g2 | 
[V:3] z8 | 
[V:4] B,8 | 
[V:1] c4B2c2- | 
[V:2] e3fg2c2- | 
[V:3] z8 | 
[V:4] z8 | 
[V:1] cBG2B2c2 | 
[V:2] cdefg2e2 | 
[V:3] z8 | 
[V:4] z8 | 
[V:1] A3Bc2F2- | 
[V:2] f3ec2d2- | 
[V:3] z8 | 
[V:4] z8 | 
[V:1] FGABc2A2 | 
[V:2] defde2f2 | 
[V:3] z8 | 
[V:4] z8 | 
[V:1] B3cd2G2- | 
[V:2] g3fd2e2- | 
[V:3] z8 | 
[V:4] z8 | 
[V:1] GABcd2B2 | 
[V:2] efgef2g2 | 
[V:3] z8 | 
[V:4] z8 | 
[V:1] c8- | 
[V:2] e2a2z2A2 | 
[V:3] z8 | 
[V:4] A,8- | 
[V:1] c8 | 
[V:2] c3de2f2 | 
[V:3] z8 | 
[V:4] A,4A,4 | 
[V:1] z8 | 
[V:2] g2d2z2d2 | 
[V:3] z8 | 
[V:4] G,4F,2G,2- | 
[V:1] z8 | 
[V:2] e2f4ed | 
[V:3] z8 | 
[V:4] G,F,D,2F,2G,2 | 
[V:1] z8 | 
[V:2] c3AB2c2 | 
[V:3] z8 | 
[V:4] E,3F,G,2C,2- | 
[V:1] z8 | 
[V:2] G3AB2c2- | 
[V:3] z8 | 
[V:4] C,D,E,F,G,2E,2 | 
[V:1] z8 | 
[V:2] cAd2c2d2 | 
[V:3] z8 | 
[V:4] F,3G,A,2D,2- | 
[V:1] z8 | 
[V:2] A3Bc2d2- | 
[V:3] z8 | 
[V:4] D,E,F,G,A,2F,2 | 
[V:1] z2B4AG | 
[V:2] dGG2g4 | 
[V:3] z8 | 
[V:4] G,8 | 
[V:1] B2A2d4 | 
[V:2] z2f4ed | 
[V:3] z8 | 
[V:4] D,8 | 
[V:1] c4z2c2- | 
[V:2] f2e2a4- | 
[V:3] z8 | 
[V:4] z8 | 
[V:1] cBcAB2G2 | 
[V:2] a4g4 | 
[V:3] z8 | 
[V:4] z8 | 
[V:1] A2B3ABG | 
[V:2] z2g3fge | 
[V:3] z8 | 
[V:4] z8 | 
[V:1] A2F2G2A2- | 
[V:2] f2d2e2f2- | 
[V:3] z8 | 
[V:4] z8 | 
[V:1] AGABcBAG | 
[V:2] fefde4 | 
[V:3] z8 | 
[V:4] z8 | 
[V:1] F4z2F2 | 
[V:2] d8 | 
[V:3] z8 | 
[V:4] z2B,4A,G, | 
[V:1] G2A3GAB | 
[V:2] z8 | 
[V:3] z8 | 
[V:4] B,2A,2D4 | 
[V:1] c3BG4 | 
[V:2] z8 | 
[V:3] z8 | 
[V:4] C4z2C2- | 
[V:1] z8 | 
[V:2] z2c2d2e2 | 
[V:3] z8 | 
[V:4] CB,CA,B,2G,2 | 
[V:1] z8 | 
[V:2] f3ef2g2 | 
[V:3] z8 | 
[V:4] A,2B,3A,B,G, | 
[V:1] z8 | 
[V:2] c2d2e2f2- | 
[V:3] z8 | 
[V:4] A,2F,2G,2A,2 | 
[V:1] z8 | 
[V:2] fef2g2e2 | 
[V:3] z8 | 
[V:4] B,3A,B,2C2 | 
[V:1] z2F2G2A2 | 
[V:2] f4z2f2 | 
[V:3] z8 | 
[V:4] F,2D,2E,2F,2 | 
[V:1] B3AB2c2 | 
[V:2] e2d4^c2 | 
[V:3] z8 | 
[V:4] G,3F,G,2A,2 | 
[V:1] F4B4- | 
[V:2] d8- | 
[V:3] z8 | 
[V:4] D,4G,4- | 
[V:1] B2B2B3A | 
[V:2] d8 | 
[V:3] z8 | 
[V:4] G,2G,2G,3F, | 
[V:1] d2c3BAG | 
[V:2] z8 | 
[V:3] z8 | 
[V:4] B,2A,3G,F,E, | 
[V:1] F8 | 
[V:2] z4f4- | 
[V:3] z8 | 
[V:4] D,8 | 
[V:1] z2c2d2c2 | 
[V:2] f2f2f3e | 
[V:3] z8 | 
[V:4] z8 | 
[V:1] f2e3dgf | 
[V:2] a2g3fed | 
[V:3] z8 | 
[V:4] z8 | 
[V:1] edd4^c2 | 
[V:2] c2d2e4 | 
[V:3] z8 | 
[V:4] z8 | 
[V:1] d8 | 
[V:2] d4z2G2- | 
[V:3] z8 | 
[V:4] z4B,4- | 
[V:1] z8 | 
[V:2] GABcd3c | 
[V:3] z8 | 
[V:4] B,2B,2B,3A, | 
[V:1] z8 | 
[V:2] f2e3da2- | 
[V:3] z8 | 
[V:4] D2C3B,A,G, | 
[V:1] z8 | 
[V:2] agg4^f2 | 
[V:3] z8 | 
[V:4] F,2G,2A,4 | 
[V:1] z4B4- | 
[V:2] g6fe | 
[V:3] z8 | 
[V:4] G,8 | 
[V:1] B2B2B3A | 
[V:2] d2G2d3c | 
[V:3] z8 | 
[V:4] z8 | 
[V:1] d2c3BAG | 
[V:2] f2e3dcB | 
[V:3] z8 | 
[V:4] z8 | 
[V:1] F3GABc2 | 
[V:2] A2d2c2A2 | 
[V:3] z8 | 
[V:4] z4F,4- | 
[V:1] A2c3BAG | 
[V:2] c2F2z2c2- | 
[V:3] z8 | 
[V:4] F,2F,2F,3E, | 
[V:1] c2B3Ac2- | 
[V:2] cAd2B2_e2- | 
[V:3] z8 | 
[V:4] A,2G,3F,_E,D, | 
[V:1] c2B4AG | 
[V:2] edd3cg2- | 
[V:3] z8 | 
[V:4] C,2D,2_E,4 | 
[V:1] B2A3GFE | 
[V:2] gff3ed2- | 
[V:3] z8 | 
[V:4] D,8- | 
[V:1] F8- | 
[V:2] dcA2B4 | 
[V:3] z8 | 
[V:4] D,8- | 
[V:1] F8 ||  
[V:2] A8 ||  
[V:3] z8 ||  
[V:4] D,8 ||  
[V:1]  [K:F] [K:clef=treble][M:2/1]z8 | 
[V:2]  [K:F] [K:clef=treble-8][M:2/1]z4B4- | 
[V:3]  [K:F] [K:clef=treble-8][M:2/1]G8- | 
[V:4]  [K:F] [K:clef=bass][M:2/1]B,6C2 | 
[V:1] z4B4- | 
[V:2] B2c2d4 | 
[V:3] G8 | 
[V:4] D4G,4- | 
[V:1] B2c2d4 | 
[V:2] G8 | 
[V:3] d8 | 
[V:4] G,2A,2B,4 | 
[V:1] G8 | 
[V:2] z4c4- | 
[V:3] e8- | 
[V:4] C8 | 
[V:1] z4c4- | 
[V:2] c2BAA4- | 
[V:3] e8 | 
[V:4] A,6B,2 | 
[V:1] c2BAA4- | 
[V:2] A2B2c4 | 
[V:3] z8 | 
[V:4] C4F,4- | 
[V:1] A2B2c4 | 
[V:2] F8 | 
[V:3] c8 | 
[V:4] F,2G,2A,4 | 
[V:1] F6G2 | 
[V:2] z4f4- | 
[V:3] d8 | 
[V:4] B,8 | 
[V:1] A8- | 
[V:2] f2e2d4 | 
[V:3] f8 | 
[V:4] F,6G,2 | 
[V:1] A8 | 
[V:2] c4d4 | 
[V:3] e4f4 | 
[V:4] A,4D,4 | 
[V:1] z4G4- | 
[V:2] z2G2c4 | 
[V:3] g8- | 
[V:4] E,6F,2 | 
[V:1] G4d4 | 
[V:2] B4G4 | 
[V:3] g8- | 
[V:4] G,8 | 
[V:1] e2g4f2 | 
[V:2] z2G2c4 | 
[V:3] g8- | 
[V:4] E,6F,2 | 
[V:1] d4e4 | 
[V:2] B4c4 | 
[V:3] g8 | 
[V:4] G,4C,4 | 
[V:1] f6ed | 
[V:2] z2F2B4 | 
[V:3] f8- | 
[V:4] D,6E,2 | 
[V:1] c3defg2 | 
[V:2] A2F2c4 | 
[V:3] f4e4 | 
[V:4] F,4C,4 | 
[V:1] f2d4cB | 
[V:2] A4f4- | 
[V:3] d8 | 
[V:4] D,6E,2 | 
[V:1] A2FGABc2- | 
[V:2] f2edc2F2 | 
[V:3] c8- | 
[V:4] F,8- | 
[V:1] cBB4A2 | 
[V:2] A2B2c4 | 
[V:3] c8 | 
[V:4] F,8 | 
[V:1] B4d4- | 
[V:2] B4G4 | 
[V:3] d8 | 
[V:4] [M:2/1](3B,6C2D4 | 
[V:1] d2B2d4 | 
[V:2] g4z2g2 | 
[V:3] d4G4 | 
[V:4] (3G,6A,2B,4 | 
[V:1] c6A2 | 
[V:2] e3cc4- | 
[V:3] A8 | 
[V:4] (3:2:2C8A,4- | 
[V:1] A4z2A2 | 
[V:2] c2A2A4 | 
[V:3] c8 | 
[V:4] (3:2:4A,2B,2C4F,4 | 
[V:1] B6G2 | 
[V:2] [M:2/1](3d4G4d4 | 
[V:3] B4G4 | 
[V:4] (3G,6A,2B,4 | 
[V:1] G4z2G2- | 
[V:2] (3:2:2_e8d4 | 
[V:3] B8 | 
[V:4] (3_E,6F,2G,4 | 
[V:1] G2^FEF4 | 
[V:2] (3:2:2_e4d8 | 
[V:3] A8 | 
[V:4] (3:2:2C,4D,8 | 
[V:1] G4z2d2- | 
[V:2] [M:2/1]B3cd2G2- | 
[V:3] G8 | 
[V:4] [M:2/1]z4B,3C | 
[V:1] d4B2d2 | 
[V:2] GABcd2G2 | 
[V:3] z4B4 | 
[V:4] D2G,3A,B,2 | 
[V:1] c6A2 | 
[V:2] A2a3ge2 | 
[V:3] A4c4 | 
[V:4] C2F,3G,A,2 | 
[V:1] A4z2B2- | 
[V:2] f6B2 | 
[V:3] d4d4 | 
[V:4] D,3E,F,2G,2 | 
[V:1] B2AGB2d2- | 
[V:2] (3:2:6B3cd2G2B2c2 | 
[V:3] G6B2- | 
[V:4] B,3CD2G,2- | 
[V:1] d2c2B4 | 
[V:2] (3d2e2f2(3g2d2e2 | 
[V:3] B2A2G4 | 
[V:4] G,2A,2B,4 | 
[V:1] A4z2A2 | 
[V:2] f2c4f2 | 
[V:3] F4A3B | 
[V:4] C4F,3G, | 
[V:1] A3FF2c2 | 
[V:2] e2f2z2f2 | 
[V:3] c2d3cA2 | 
[V:4] A,2D,3E,F,2 | 
[V:1] B2A3GE2 | 
[V:2] d2f3ec2 | 
[V:3] B2c2A4- | 
[V:4] G,2F,3G,A,2 | 
[V:1] FGAFG2c2 | 
[V:2] d2A2z2f2 | 
[V:3] A4G2A2 | 
[V:4] D,4E,2F,2 | 
[V:1] B2A3GE2 | 
[V:2] d2f3ec2 | 
[V:3] B2c2A4- | 
[V:4] G,2F,3G,A,2 | 
[V:1] F4G4- | 
[V:2] d2f2e4 | 
[V:3] A4G4- | 
[V:4] D,4E,3F, | 
[V:1] G8 ||  
[V:2] d8 ||  
[V:3] G8 ||  
[V:4] G,8 ||  
[V:1]  [K:F] [K:clef=treble][M:2/1]d4_e2d2- | 
[V:2]  [K:F] [K:clef=treble-8][M:2/1]g8- | 
[V:3]  [K:F] [K:clef=treble-8][M:2/1]z8 | 
[V:4]  [K:F] [K:clef=bass][M:2/1]z8 | 
[V:1] dcdB_e2d2- | 
[V:2] g8 | 
[V:3] z8 | 
[V:4] z8 | 
[V:1] d2cBA4 | 
[V:2] f6g2 | 
[V:3] z8 | 
[V:4] z8 | 
[V:1] D8- | 
[V:2] a4b2a2- | 
[V:3] z8 | 
[V:4] z8 | 
[V:1] D8 | 
[V:2] agafb2a2- | 
[V:3] z8 | 
[V:4] z8 | 
[V:1] C8 | 
[V:2] a2gfe4 | 
[V:3] z8 | 
[V:4] z8 | 
[V:1] A4B2A2- | 
[V:2] d8- | 
[V:3] z8 | 
[V:4] z8 | 
[V:1] AGAFB2A2- | 
[V:2] d8 | 
[V:3] z8 | 
[V:4] z8 | 
[V:1] A2GFE2A2- | 
[V:2] c8 | 
[V:3] z8 | 
[V:4] z8 | 
[V:1] A2B2G2B2 | 
[V:2] d4_e2d2- | 
[V:3] z8 | 
[V:4] z8 | 
[V:1] A2B2G2B2- | 
[V:2] dcdB_e2d2- | 
[V:3] z8 | 
[V:4] z8 | 
[V:1] B2AGF2c2- | 
[V:2] d2cBA4 | 
[V:3] z8 | 
[V:4] z8 | 
[V:1] cBc2d2f2 | 
[V:2] z2a2b2a2- | 
[V:3] z8 | 
[V:4] z8 | 
[V:1] e2f2d2f2- | 
[V:2] agafb2a2- | 
[V:3] z8 | 
[V:4] z8 | 
[V:1] f2ed^cdec | 
[V:2] a2gfe4 | 
[V:3] z8 | 
[V:4] z8 | 
[V:1] d8 ||  
[V:2] d8 ||  
[V:3] z8 ||  
[V:4] z8 ||  
[V:1]  [K:F] [K:clef=treble][M:2/1]z8 | 
[V:2]  [K:F] [K:clef=treble-8][M:2/1]d8- | 
[V:3]  [K:F] [K:clef=treble-8][M:2/1]z8 | 
[V:4]  [K:F] [K:clef=bass][M:2/1]G,4F,2G,2- | 
[V:1] z8 | 
[V:2] d8 | 
[V:3] z8 | 
[V:4] G,A,B,2G,2B,2- | 
[V:1] z8 | 
[V:2] d4c2d2- | 
[V:3] z8 | 
[V:4] B,2A,G,A,2D,2 | 
[V:1] z8 | 
[V:2] def2d2f2- | 
[V:3] z8 | 
[V:4] D,4z4 | 
[V:1] z8 | 
[V:2] f2ede2A2 | 
[V:3] z8 | 
[V:4] D,4C,2D,2- | 
[V:1] z8 | 
[V:2] A4z4 | 
[V:3] z8 | 
[V:4] D,E,F,2D,2F,2- | 
[V:1] z8 | 
[V:2] A4G2A2- | 
[V:3] z8 | 
[V:4] F,2E,D,E,2D,2 | 
[V:1] z8 | 
[V:2] ABc2A2c2- | 
[V:3] z8 | 
[V:4] A,4z4 | 
[V:1] z8 | 
[V:2] c2BAB2A2 | 
[V:3] z8 | 
[V:4] A,4G,2A,2- | 
[V:1] z8 | 
[V:2] c3FF4 | 
[V:3] z8 | 
[V:4] A,B,C2A,2C2- | 
[V:1] z8 | 
[V:2] z2c2d2f2 | 
[V:3] z8 | 
[V:4] C2B,A,B,2A,2 | 
[V:1] z8 | 
[V:2] e2A2c3F | 
[V:3] z8 | 
[V:4] C3F,F,2A,2- | 
[V:1] z8 | 
[V:2] F2f3BB2 | 
[V:3] z8 | 
[V:4] A,D,D,2D3G, | 
[V:1] z8 | 
[V:2] d2G2d3e | 
[V:3] z8 | 
[V:4] G,2D2G,A,B,C | 
[V:1] z8 | 
[V:2] fge2defg | 
[V:3] z8 | 
[V:4] A,2G,A,B,CA,2 | 
[V:1] z8 | 
[V:2] edf2eda2- | 
[V:3] z8 | 
[V:4] G,2F,2G,2F,2 | 
[V:1] z8 | 
[V:2] agg4^f2 | 
[V:3] z8 | 
[V:4] G,4A,4 | 
[V:1] z8 ||  
[V:2] g8 ||  
[V:3] z8 ||  
[V:4] G,8 ||  



